X:12
T:Bird's Nest
Z: id:dc-reel-384
M:C
L:1/8
K:A Dorian
cAA2 GABG|A2AB cded|cAA2 GABG|Aage dced|!
cAA2 GABG|A2AB cded|cAA2 GABG|Aage decd|]!
K:C Major
ecag egdg|ecgc acgc|ecag edcd|eage decd|!
ecag egdg|ecgc acgc|aee2 edcd|eage dced|]!

